!!!COM: Palestrina, Giovanni Perluigi da
!!!OPR: Missa Virtute magna
!!!OTL: Kyrie
**kern	**kern	**kern	**kern
*Ibass	*Itenor	*Icalto	*Icant
!Bassus	!Tenor	!Altus	!Cantus
*clefF4	*clefGv2	*clefG2	*clefG2
*k[]	*k[]	*k[]	*k[]
*G:mix	*G:mix	*G:mix	*G:mix
*M4/2	*M4/2	*M4/2	*M4/2
=1	=1	=1	=1
0r	1G	0r	0r
.	[1d	.	.
=2	=2	=2	=2
1r	2d]	0r	0r
.	2d	.	.
1C	1c	.	.
=3	=3	=3	=3
1.G	2B	0r	0r
.	1d	.	.
2G	4c	.	.
.	4B	.	.
=4	=4	=4	=4
1F	2A	0r	1r
.	1c	.	.
2E	.	.	1g
[2G	4B	.	.
.	4A	.	.
=5	=5	=5	=5
2G]	4B	0r	1.dd
.	4c	.	.
4F	4d	.	.
4E	4e	.	.
4D	1f	.	.
4E	.	.	.
4F	.	.	2dd
4G	.	.	.
=6	=6	=6	=6
1A	1.e	1c	1cc
1G	.	[1g	2b
.	4d	.	[2dd
.	4c	.	.
=7	=7	=7	=7
0r	2B	2g]	2dd]
.	2c	2g	4cc
.	.	.	4b
.	2d	1f	2a
.	2A	.	2cc
=8	=8	=8	=8
0r	1c	2e	2.g
.	.	1g	.
.	.	.	4a
.	1G	.	4b
.	.	.	4cc
.	.	4f	[2dd
.	.	4e	.
=9	=9	=9	=9
0r	0r	2.d	4dd]
.	.	.	4ee
.	.	.	2ff
.	.	4e	.
.	.	2f	2cc
.	.	2c	[2ee
=10	=10	=10	=10
1C	0r	1e	4ee]
.	.	.	4dd
.	.	.	1cc
[1G	.	2.d	.
.	.	.	4b
.	.	4c	4a
=11	=11	=11	=11
2G]	0r	2d	1b
2G	.	1e	.
1F	.	.	1a
.	.	2d	.
=12	=12	=12	=12
2E	1G	2e	1g
1G	.	4d	.
.	.	4c	.
.	[1d	2B	2r
4F	.	4A	2d
4E	.	4G	.
=13	=13	=13	=13
2.D	2d]	1A	2.f
.	2d	.	.
4E	.	.	4g
2F	1c	1r	4a
.	.	.	4b
2C	.	.	2cc
=14	=14	=14	=14
2E	2B	0r	2g
2D	1d	.	2b
[1F	.	.	2.a
.	4c	.	.
.	4B	.	4b
=15	=15	=15	=15
2F]	2.A	1c	2.cc
4E	.	.	.
4D	4B	.	4dd
2C	1c	[1g	1ee
[2c	.	.	.
=16	=16	=16	=16
2c]	1G	2g]	1dd
2B	.	2g	.
2A	1r	1f	1r
2F	.	.	.
=17	=17	=17	=17
2.c	0r	2e	1g
.	.	1g	.
8B	.	.	.
8A	.	.	.
2G	.	.	[1dd
[2d	.	4f	.
.	.	4e	.
=18	=18	=18	=18
2d]	2r	1d	2dd]
4c	1g	.	2dd
4B	.	.	.
1A	.	2e	1cc
.	2f#	2c	.
=19	=19	=19	=19
1G	2g	1d	2b
.	2G	.	1dd
1r	2B	2G	.
.	2c	[2g	4cc
.	.	.	4b
=20	=20	=20	=20
2r	1d	2g]	2.a
2d	.	2f#	.
.	.	.	4b
2c	2r	1g	2cc
2B	2g	.	[2dd
=21	=21	=21	=21
2.A	2f	0r	2dd]
.	2.e	.	2cc
4G	.	.	.
2F#	.	.	2a
.	4d	.	.
2G	[2d	.	2b
=22	=22	=22	=22
1E	2d]	2r	1g
.	2c#	1g	.
1D	1d	.	2r
.	.	2f	2dd
=23	=23	=23	=23
0r	2r	2e	2cc
.	1d	2d	2b
.	.	2f	2.a
.	2c#	[2e	.
.	.	.	4g
=24	=24	=24	=24
0r	2d	4e]	2f#
.	.	4d	.
.	2G	1d	2g
.	1A	.	1e
.	.	2c#	.
=25	=25	=25	=25
2r	1r	2d	1d
2d	.	2f	.
2c	1g	2e	2r
2B	.	2d	[2dd
=26	=26	=26	=26
1A	2f	1a	2dd]
.	2e	.	2cc
1D	2.d	2r	2b
.	.	2f	[2a
.	4c	.	.
=27	=27	=27	=27
2G	2B	2d	4a]
.	.	.	4g
2C	2c	2e	1g
1D	1A	1d	.
.	.	.	2f#
=28	=28	=28	=28
0G	0G	0d	0g
=29	=29	=29	=29
1.G	[0d	0r	0r
2F	.	.	.
=30	=30	=30	=30
2.B-	0d]	0r	0r
4A	.	.	.
2G	.	.	.
2F	.	.	.
=31	=31	=31	=31
1E	1c	0r	0r
[1D	1d	.	.
=32	=32	=32	=32
1D]	1.f	1.d	[0a
1A	.	.	.
.	2e	2c	.
=33	=33	=33	=33
1D	1d	2.f	0a]
.	.	4e	.
1r	2f	2d	.
.	2e	2c	.
=34	=34	=34	=34
2r	1d	1B	1g
1d	.	.	.
.	1e	2A	[1a
2c#	.	2e	.
=35	=35	=35	=35
1d	2r	1f	1a]
.	1d	.	.
1A	.	1e	1a
.	2c	.	.
=36	=36	=36	=36
2r	2.A	[0e	1.cc
1A	.	.	.
.	4B	.	.
.	4c	.	.
.	4d	.	.
2G	2e	.	2b
=37	=37	=37	=37
2.c	2A	1e]	2a
.	1e	.	1g
4B	.	.	.
1A	.	1r	.
.	4d	.	2f#
.	4c	.	.
=38	=38	=38	=38
2.G	4B	1r	1g
.	4c	.	.
.	1d	.	.
4F	.	.	.
1E	.	[1g	1r
.	2c#	.	.
=39	=39	=39	=39
1D	1d	2g]	[0dd
.	.	2f	.
1r	[1G	2.b-	.
.	.	4a	.
=40	=40	=40	=40
0r	1G]	2g	1dd]
.	.	2f	.
.	2r	1e	1cc
.	[2g	.	.
=41	=41	=41	=41
2r	2g]	1d	1dd
1d	4f	.	.
.	4e	.	.
.	2f	1r	1a
2c	2e	.	.
=42	=42	=42	=42
2.f	2.d	0a	0r
4e	4e	.	.
2d	2f	.	.
2c	2e	.	.
=43	=43	=43	=43
1B-	1d	1g	2r
.	.	.	1dd
1A	1e	[1a	.
.	.	.	2cc
=44	=44	=44	=44
2.D	1d	0a]	2.ff
4E	.	.	4ee
1F	1r	.	2dd
.	.	.	2cc
=45	=45	=45	=45
1G	1r	2d	1b
.	.	1g	.
1D	2r	.	[1a
.	[2d	4f	.
.	.	4e	.
=46	=46	=46	=46
1A	2d]	2f	1a]
.	2c	2e	.
1r	2.f	2.d	1a
.	4e	4e	.
=47	=47	=47	=47
0r	2d	2f	2dd
.	2c	2.g	2.ee
.	1B-	.	.
.	.	4f	4dd
.	.	2d	[2dd
=48	=48	=48	=48
1r	1A	2e	2dd]
.	.	2a	2cc#
2r	[1d	2f	1dd
[2G	.	[2b-	.
=49	=49	=49	=49
2G]	0d]	2b-]	0r
2F	.	2a	.
2.B-	.	2g	.
.	.	2f	.
4A	.	.	.
=50	=50	=50	=50
2G	0r	2e	1r
2F	.	1d	.
1E	.	.	2r
.	.	2c#	[2g
=51	=51	=51	=51
2D	2r	1d	2g]
2D	1d	.	2f
2G	.	1r	2b-
2A	2c	.	[2a
=52	=52	=52	=52
2F	2f	0r	2a]
2G	1e	.	2g
[1A	.	.	2f
.	[2d	.	4e
.	.	.	4d
=53	=53	=53	=53
1A]	2d]	2r	1e
.	2c	1a	.
2r	1B-	.	1d
[2d	.	2g	.
=54	=54	=54	=54
2d]	0A	2f	[0a
2c	.	2e	.
2.f	.	1d	.
4e	.	.	.
=55	=55	=55	=55
2d	2r	2f	1a]
2c	1a	2e	.
1B-	.	1d	2r
.	2g	.	[2dd
=56	=56	=56	=56
1A	2f	2r	2dd]
.	2e	1a	2cc
1D	1d	.	2.ff
.	.	2f	.
.	.	.	4ee
=57	=57	=57	=57
0G	[0d	2b-	2dd
.	.	2a	2cc
.	.	1g	1b-
=58	=58	=58	=58
0D	0d]	0f#	0a
=59	=59	=59	=59
0r	0r	1.d	0r
.	.	2d	.
=60	=60	=60	=60
0r	0r	2e	2r
.	.	2f	1dd
.	.	1g	.
.	.	.	2dd
=61	=61	=61	=61
0r	0r	2r	2ee
.	.	2d	2ff
.	.	2e	2gg
.	.	[2g	2dd
=62	=62	=62	=62
0r	0r	4g]	2ee
.	.	4f	.
.	.	4e	4gg
.	.	4d	4ff
.	.	2c	4ee
.	.	.	4dd
.	.	2d	[2dd
=63	=63	=63	=63
0r	1.A	1e	2dd]
.	.	.	4cc
.	.	.	4b
.	.	2e	1cc
.	2A	[2a	.
=64	=64	=64	=64
1r	2B	4a]	2dd
.	.	4g	.
.	2c	1g	4cc
.	.	.	4b
[1D	[1d	.	[1a
.	.	4f	.
.	.	4e	.
=65	=65	=65	=65
2D]	1d]	1f	1a]
2D	.	.	.
2E	2r	2e	2g
2F	[2d	4d	2a
.	.	4c	.
=66	=66	=66	=66
1G	2d]	2B	1b
.	2d	2G	.
2r	2e	2c	1a
2D	2f	2d	.
=67	=67	=67	=67
2E	2g	1G	1r
2.G	2d	.	.
.	2e	1r	[1g
4F	.	.	.
4E	4g	.	.
4D	4f	.	.
=68	=68	=68	=68
2C	4e	0r	2g]
.	4d	.	.
1c	2.e	.	2g
.	.	.	2a
.	4f	.	.
2B	[2g	.	2b
=69	=69	=69	=69
1A	2g]	1r	1.cc
.	2f#	.	.
[1G	1g	2r	.
.	.	[2d	4b
.	.	.	4a
=70	=70	=70	=70
1G]	2r	2d]	1b
.	2G	2d	.
1r	2c	2e	2r
.	2d	2f	2a
=71	=71	=71	=71
0r	2.G	1g	2b
.	.	.	2.dd
.	4A	.	.
.	1B	2r	.
.	.	.	4cc
.	.	2d	4b
.	.	.	4a
=72	=72	=72	=72
1r	1c	2e	1g
.	.	2.g	.
2r	1G	.	1b
.	.	4f	.
2G	.	4e	.
.	.	4d	.
=73	=73	=73	=73
2A	0r	2.c	2cc
2.c	.	.	2.ee
.	.	4d	.
.	.	2e	.
4B	.	.	4dd
4A	.	[2f	4cc
4G	.	.	4b
=74	=74	=74	=74
2F	1r	4f]	2a
.	.	4e	.
2G	.	1d	4g
.	.	.	4f
1A	2r	.	1e
.	2A	2c#	.
=75	=75	=75	=75
2r	2B	1d	1d
1D	2.d	.	.
.	.	1r	1r
.	4c	.	.
2D	4B	.	.
.	4A	.	.
=76	=76	=76	=76
1E	2G	0r	1r
.	2B	.	.
1F	1A	.	2r
.	.	.	2a
=77	=77	=77	=77
0G	1G	2r	2b
.	.	1d	2.dd
.	1r	.	.
.	.	.	4cc
.	.	2d	4b
.	.	.	4a
=78	=78	=78	=78
1r	0r	1e	2g
.	.	.	2b
1D	.	1f	1a
=79	=79	=79	=79
2E	2r	1g	1g
2.G	2d	.	.
.	2e	1r	1r
4F	.	.	.
4E	[2g	.	.
4D	.	.	.
=80	=80	=80	=80
2C	4g]	0r	2r
.	4f	.	.
2.c	4e	.	2g
.	4d	.	.
.	2.c	.	2a
4B	.	.	.
4A	.	.	[2cc
4G	4B	.	.
=81	=81	=81	=81
1F	1A	2r	4cc]
.	.	.	4b
.	.	2c	4a
.	.	.	4g
2.D	2r	2d	2f
.	[2A	[2f	[2a
4E	.	.	.
=82	=82	=82	=82
1F	2A]	4f]	4a]
.	.	4e	4g
.	2A	4d	4f
.	.	4c	4e
2G	2B	2B	2d
2E	2c	2G	[2g
=83	=83	=83	=83
1D	1d	1A	2g]
.	.	.	2f#
1G	1B	2G	1g
.	.	2d	.
=84	=84	=84	=84
0C	0c	2e	1r
.	.	2.g	.
.	.	.	[1g
.	.	4f	.
.	.	4e	.
.	.	4d	.
=85	=85	=85	=85
1r	2r	2c	2g]
.	2c	2e	2g
2r	2f	1d	2a
2G	2g	.	2b
=86	=86	=86	=86
2A	1e	1c	2cc
2.c	.	.	2g
.	1A	1r	2a
4B	.	.	.
4A	.	.	[2cc
4G	.	.	.
=87	=87	=87	=87
1F	2r	1r	4cc]
.	.	.	4b
.	2c	.	4a
.	.	.	4g
2.D	2d	2r	2f
.	[2f	[2A	[2a
4E	.	.	.
=88	=88	=88	=88
1F	4f]	2A]	4a]
.	4e	.	4g
.	4d	2A	4f
.	4c	.	4e
2G	2B	2B	2d
2E	2G	2c	[2g
=89	=89	=89	=89
1D	2A	0d	2g]
.	2B	.	4f
.	.	.	4e
1D	1A	.	1f#
=90	=90	=90	=90
2E	1G	2r	[0g
2.G	.	2d	.
.	2r	2e	.
4F	.	.	.
4E	2B	[2g	.
4D	.	.	.
=91	=91	=91	=91
1.C	2c	4g]	1g_
.	.	4f	.
.	1e	4e	.
.	.	4d	.
.	.	2c	1g_
2G	2d	2B	.
=92	=92	=92	=92
0C	0c	0e	0g]
=93	=93	=93	=93
[0G	[0B	[0d	[0g
=94	=94	=94	=94
0G]	0B]	0d]	0g]
==	==	==	==
*-	*-	*-	*-
!!!CDT: 1525/^1526/-1594/2/2
!!!OCY: Italia
!!!AGN: Mass (Parody)
!!!AST: renaissance, vocal
!!!ASW: Motet 1532 (Lasson)
!!!PWK: Masses, Book I
!!!RNB: Cadence finals: D
!!!YOR: Le Opere Complete, v. 1, p. 62
!!!YOO: Rome, Italy: Fratelli Scalera
!!!END: 1992//
!!!EED: John Miller
!!!YEC: Copyright 2000, John Miller
!!!YEN: United States of America
!!!YEM: Rights to all derivative electronic formats reserved.
!!!YEM: Refer to licensing agreement for further details.
!!!YEM: This file must be accompanied by the licensing agreement.
!!!YEM: A copy of the licensing agreement may be found at http://www.music-cog.ohio-state.edu/HumdrumDatabases/Palestrina/license.txt
!!!EMD: converted to Humdrum by Bret Aarden
